cps(180/50/4)

d1 $ sound "[bd ] [bd bass]" # up (run 4)

d2 $ pan "0 1 0.25 0.75" # sound "bass2" # crush "6"
# silence
d7 $ sound "cp cp" # crush "4"
# silence
d3 $ every 4 (0.5 <~) $ n "0 2 1 4" # sound "cp" # speed "2"
# silence

d4 $ every 4 (0.5 <~) $ n "3" # sound "bass2" # crush "1" # gain "0.7"
# silence

d5 $ sound (samples "drum hh cp hh" (run 3)) # crush "7" # gain 1.3
# silence

d6 $ sound (samples "ho:3 cp hh bd" (run 3)) # crush "4" # gain 0.9
# silence

hush
